images/standarts/standart-10.svg

<svg width="25" height="24" viewBox="0 0 25 24" fill="none" xmlns="http://www.w3.org/2000/svg">
<rect x="2.5" y="2" width="20" height="2" fill="white"/>
<path d="M17.7461 21.2443C17.8405 21.1184 18.0924 20.7406 18.5645 20.7406C19.0997 20.7406 19.3516 21.2128 19.5405 21.5277C19.7294 21.8425 19.8238 21.9999 19.9813 21.9999C20.1387 21.9999 20.2332 21.8425 20.4221 21.5277C20.611 21.1815 20.8629 20.7406 21.3981 20.7406C21.9333 20.7406 22.1852 21.2128 22.3741 21.5277C22.4056 21.5908 22.4684 21.6536 22.4999 21.7481L22.4997 15.3887H19.2886L17.7461 21.2443Z" fill="white"/>
<path d="M2.5 15.3889V21.748C2.53151 21.685 2.59437 21.6221 2.62588 21.5591C2.81478 21.2128 3.06653 20.7406 3.60171 20.7406C4.13689 20.7406 4.38881 21.2128 4.57769 21.5277C4.76658 21.8425 4.86096 21.9999 5.01848 21.9999C5.17587 21.9999 5.27039 21.8425 5.45928 21.5277C5.64818 21.1814 5.90008 20.7406 6.43526 20.7406C6.90744 20.7406 7.15932 21.1184 7.2537 21.2443L5.71104 15.3887L2.5 15.3889Z" fill="white"/>
<path d="M2.5 14.7594H5.74243L9.58311 5H2.5V14.7594Z" fill="white"/>
<path d="M19.2577 14.7594H22.5001V5H15.417L19.2577 14.7594Z" fill="white"/>
</svg>

<svg width="25" height="24" fill="none" xmlns="http://www.w3.org/2000/svg"><path fill="#fff" d="M2.5 2h20v2h-20zm15.246 19.244c.095-.126.346-.503.819-.503.535 0 .787.472.976.787.188.315.283.472.44.472.158 0 .252-.157.441-.472.189-.346.44-.787.976-.787.535 0 .787.472.976.787.032.063.094.126.126.22v-6.36h-3.211l-1.543 5.856zM2.5 15.389v6.359c.032-.063.094-.126.126-.189.189-.346.44-.818.976-.818.535 0 .787.472.976.787.189.315.283.472.44.472.158 0 .252-.157.441-.472.19-.347.441-.787.976-.787.472 0 .724.377.819.503L5.71 15.39H2.5zm0-.629h3.242L9.583 5H2.5v9.76zm16.758 0H22.5V5h-7.083l3.84 9.76z"/></svg>
